X: 30535
T: On The Boulevard
R: jig
M: 6/8
K: Eminor
F|:GFG E2F|GDB, G,B,D|Ged B2A|BGE E2F|
GFGE2F|GDB, G,B,D|Eed B2A|1 BGE E2F:|2 BGE E2f||
gfg e2f|gdB GBd|gfg a2g|eBG EGB|
gfg e2f|gdB GAc|Bed B2A|BGE E2f|
gfg e2f|gdB GBd|gfg a2g|eBG EGB|
efg f2e|dAF DFA|Bed B2A|1 BGE E2f:|2 BGE E3||

